src/img/icons/crown.svg

<svg fill="none" height="19" viewBox="0 0 24 19" width="24" xmlns="http://www.w3.org/2000/svg"><path d="m23.25 4.8125c0 .89844-.7031 1.5625-1.5625 1.5625-.0391 0-.0391 0-.0391 0l-1.9922 10.8594c-.0781.5859-.625 1.0156-1.2109 1.0156h-12.92968c-.58593 0-1.13281-.4297-1.21093-1.0156l-1.99219-10.8594s0 0-.03906 0c-.85938 0-1.562502-.66406-1.562502-1.5625 0-.85938.703122-1.5625 1.562502-1.5625.82031 0 1.5625.70312 1.5625 1.5625 0 .35156-.15625.66406-.35156.9375l3.51562 2.8125c.625.46875 1.52344.27344 1.875-.42969l2.2656-4.49219c-.4297-.27343-.7422-.74218-.7422-1.32812 0-.85938.7032-1.5625 1.6016-1.5625.8594 0 1.5234.70312 1.5234 1.5625 0 .58594-.3125 1.05469-.7812 1.32812l2.2656 4.49219c.3516.70313 1.2891.89844 1.9141.42969l3.4765-2.8125c-.1562-.27344-.2734-.58594-.2734-.9375 0-.85938.6641-1.5625 1.5625-1.5625.8594 0 1.5625.70312 1.5625 1.5625z" fill="#fff"/></svg>

<svg width="24" height="19" viewBox="0 0 24 19" fill="none" xmlns="http://www.w3.org/2000/svg">
<path d="M23.25 4.8125C23.25 5.71094 22.5469 6.375 21.6875 6.375C21.6484 6.375 21.6484 6.375 21.6484 6.375L19.6562 17.2344C19.5781 17.8203 19.0312 18.25 18.4453 18.25H5.51562C4.92969 18.25 4.38281 17.8203 4.30469 17.2344L2.3125 6.375C2.3125 6.375 2.3125 6.375 2.27344 6.375C1.41406 6.375 0.710938 5.71094 0.710938 4.8125C0.710938 3.95312 1.41406 3.25 2.27344 3.25C3.09375 3.25 3.83594 3.95312 3.83594 4.8125C3.83594 5.16406 3.67969 5.47656 3.48438 5.75L7 8.5625C7.625 9.03125 8.52344 8.83594 8.875 8.13281L11.1406 3.64062C10.7109 3.36719 10.3984 2.89844 10.3984 2.3125C10.3984 1.45312 11.1016 0.75 12 0.75C12.8594 0.75 13.5234 1.45312 13.5234 2.3125C13.5234 2.89844 13.2109 3.36719 12.7422 3.64062L15.0078 8.13281C15.3594 8.83594 16.2969 9.03125 16.9219 8.5625L20.3984 5.75C20.2422 5.47656 20.125 5.16406 20.125 4.8125C20.125 3.95312 20.7891 3.25 21.6875 3.25C22.5469 3.25 23.25 3.95312 23.25 4.8125Z" fill="white"/>
</svg>
